actions/scalable/format-text-subscript.svg

<?xml version="1.0" encoding="UTF-8" standalone="no"?>
<!-- Created with Inkscape (http://www.inkscape.org/) -->

<svg
   xmlns:dc="http://purl.org/dc/elements/1.1/"
   xmlns:cc="http://creativecommons.org/ns#"
   xmlns:rdf="http://www.w3.org/1999/02/22-rdf-syntax-ns#"
   xmlns:svg="http://www.w3.org/2000/svg"
   xmlns="http://www.w3.org/2000/svg"
   xmlns:sodipodi="http://sodipodi.sourceforge.net/DTD/sodipodi-0.dtd"
   xmlns:inkscape="http://www.inkscape.org/namespaces/inkscape"
   width="22"
   height="22"
   id="svg2"
   version="1.1"
   inkscape:version="0.48+devel r"
   viewBox="0 0 22 22"
   sodipodi:docname="format-text-subscript.svg">
  <defs
     id="defs4" />
  <sodipodi:namedview
     id="base"
     pagecolor="#ffffff"
     bordercolor="#666666"
     borderopacity="1.0"
     inkscape:pageopacity="0.0"
     inkscape:pageshadow="2"
     inkscape:zoom="25.15656"
     inkscape:cx="9.8537354"
     inkscape:cy="5.9960192"
     inkscape:document-units="px"
     inkscape:current-layer="layer1"
     showgrid="true"
     inkscape:showpageshadow="false"
     units="px"
     inkscape:window-width="1366"
     inkscape:window-height="668"
     inkscape:window-x="-2"
     inkscape:window-y="23"
     inkscape:window-maximized="1"
     showguides="true">
    <inkscape:grid
       type="xygrid"
       id="grid4120" />
    <sodipodi:guide
       position="2,20.000017"
       orientation="18,0"
       id="guide4126" />
    <sodipodi:guide
       position="2,2.0000174"
       orientation="0,18"
       id="guide4128" />
    <sodipodi:guide
       position="20,2.0000174"
       orientation="-18,0"
       id="guide4130" />
    <sodipodi:guide
       position="20,20.000017"
       orientation="0,-18"
       id="guide4132" />
    <sodipodi:guide
       position="3,19.000017"
       orientation="16,0"
       id="guide4134" />
    <sodipodi:guide
       position="3,3.0000174"
       orientation="0,16"
       id="guide4136" />
    <sodipodi:guide
       position="19,3.0000174"
       orientation="-16,0"
       id="guide4138" />
    <sodipodi:guide
       position="19,19.000017"
       orientation="0,-16"
       id="guide4140" />
    <sodipodi:guide
       position="19,13.000017"
       orientation="-6,0"
       id="guide4199" />
    <sodipodi:guide
       position="19,19.000017"
       orientation="0,-6.0000172"
       id="guide4201" />
  </sodipodi:namedview>
  <metadata
     id="metadata7">
    <rdf:RDF>
      <cc:Work
         rdf:about="">
        <dc:format>image/svg+xml</dc:format>
        <dc:type
           rdf:resource="http://purl.org/dc/dcmitype/StillImage" />
        <dc:title />
      </cc:Work>
    </rdf:RDF>
  </metadata>
  <g
     inkscape:label="Capa 1"
     inkscape:groupmode="layer"
     id="layer1"
     transform="translate(0,-1030.3622)">
    <path
       style="opacity:1;fill:#666666;fill-opacity:1;stroke:none"
       d="M 8.4902344 3 C 6.5936214 3 4.822001 3.4744375 3.7988281 4.0234375 L 4.3730469 5.6210938 C 5.4710861 5.0970938 7.0686452 4.7226562 8.5410156 4.7226562 C 10.387717 4.7226562 11.185547 5.5712594 11.185547 7.1933594 L 11.185547 8.7148438 L 9.8378906 8.8652344 C 6.3940406 9.3643344 2.9999999 9.8387219 3 13.357422 C 3 15.852922 4.872281 17 7.0683594 17 C 8.4658643 17 10.063423 16.551116 11.236328 15.228516 L 11.535156 16.701172 L 13.207031 16.701172 L 13.207031 6.8671875 C 13.207031 3.8724875 11.13551 3 8.4902344 3 z M 11.185547 10.136719 L 11.185547 13.431641 C 10.312107 14.629441 8.5403051 15.402344 7.2675781 15.402344 C 5.9948504 15.402344 5.046875 14.77865 5.046875 13.28125 C 5.046875 11.40965 6.1696647 10.8117 9.9628906 10.3125 C 9.9878506 10.3125 11.185547 10.136719 11.185547 10.136719 z M 16.945312 13 C 15.640964 13.0107 15 13.813034 15 14.615234 C 15.010869 15.310434 15.348676 15.878319 16.511719 16.199219 L 17.283203 16.412109 C 17.935377 16.593909 18.162109 16.937081 18.162109 17.300781 L 18.162109 17.353516 C 18.107762 17.952516 17.684527 18.273438 17.021484 18.273438 L 16.935547 18.273438 C 16.14207 18.273438 15.500594 17.930116 15.283203 17.791016 L 15.054688 18.464844 C 15.402513 18.721544 16.184868 19 17.076172 19 C 18.184867 19 18.96739 18.412231 19 17.332031 L 19 17.310547 C 19 16.358647 18.478854 15.867094 17.533203 15.621094 L 16.728516 15.40625 C 16.098082 15.24585 15.890625 14.968134 15.890625 14.615234 C 15.890625 14.026934 16.370415 13.695312 17.011719 13.695312 C 17.653023 13.695312 18.184783 13.877559 18.5 14.005859 L 18.707031 13.375 C 18.261379 13.1504 17.695311 13 16.945312 13 z "
       transform="translate(0,1030.3622)"
       id="rect4156" />
  </g>
</svg>

<svg height="22" viewBox="0 0 22 22" width="22" xmlns="http://www.w3.org/2000/svg" xmlns:sodipodi="http://sodipodi.sourceforge.net/DTD/sodipodi-0.dtd" xmlns:inkscape="http://www.inkscape.org/namespaces/inkscape">
 <path d="m8.4902 3c-1.8966 0-3.6682 0.4744-4.6914 1.0234l0.5742 1.5977c1.0981-0.524 2.6956-0.8984 4.168-0.8984 1.847 0 2.645 0.8486 2.645 2.4707v1.5214l-1.3481 0.1504c-3.4439 0.4991-6.8379 0.9735-6.8379 4.4918 0 2.496 1.8723 3.643 4.0684 3.643 1.3975 0 2.9946-0.449 4.1676-1.771l0.299 1.472h1.672v-9.8338c0-2.9947-2.071-3.8672-4.7168-3.8672zm2.6958 7.137v3.295c-0.874 1.197-2.6457 1.97-3.9184 1.97s-2.2207-0.623-2.2207-2.121c0-1.871 1.1228-2.469 4.916-2.969 0.025 0 1.2231-0.175 1.2231-0.175zm5.759 2.863c-1.304 0.011-1.945 0.813-1.945 1.615 0.011 0.695 0.349 1.263 1.512 1.584l0.771 0.213c0.652 0.182 0.879 0.525 0.879 0.889v0.053c-0.054 0.599-0.477 0.919-1.141 0.919h-0.085c-0.794 0-1.435-0.343-1.653-0.482l-0.228 0.674c0.348 0.257 1.13 0.535 2.021 0.535 1.109 0 1.891-0.588 1.924-1.668v-0.021c0-0.952-0.521-1.444-1.467-1.69l-0.804-0.215c-0.631-0.16-0.838-0.438-0.838-0.791 0-0.588 0.479-0.92 1.121-0.92 0.641 0 1.173 0.183 1.488 0.311l0.207-0.631c-0.446-0.225-1.012-0.375-1.762-0.375z" fill="#4d4d4d" transform="matrix(1 0 0 1 0 0)"/>
</svg>
